;FLAVOR:Marlin
;TIME:1797
;Filament used: 0.280536m
;Layer height: 0.05
;MINX:99.548
;MINY:92.1
;MINZ:0.2
;MAXX:135.45
;MAXY:142.9
;MAXZ:2.4
;Generated with Cura_SteamEngine master
M140 S60
M105
M190 S60
M104 S210
M105
M109 S210
M82 ;absolute extrusion mode
; Ender 3 Custom Start G-code
G92 E0 ; Reset Extruder
G28 ; Home all axes
G1 Z2.0 F3000 ; Move Z Axis up little to prevent scratching of Heat Bed
G1 X0.1 Y20 Z0.3 F5000.0 ; Move to start position
G1 X0.1 Y200.0 Z0.3 F1500.0 E15 ; Draw the first line
G1 X0.4 Y200.0 Z0.3 F5000.0 ; Move to side a little
G1 X0.4 Y20 Z0.3 F1500.0 E30 ; Draw the second line
G92 E0 ; Reset Extruder
G1 Z2.0 F3000 ; Move Z Axis up little to prevent scratching of Heat Bed
G1 X5 Y20 Z0.3 F5000.0 ; Move over to prevent blob squish
G92 E0
G92 E0
G1 F1500 E-6.5
;LAYER_COUNT:45
;LAYER:0
M107
G0 F6000 X102.76 Y95.352 Z0.2
;TYPE:SKIRT
G1 F1500 E0
G1 F1200 X103.449 Y94.716 E0.03119
G1 X104.19 Y94.141 E0.06238
G1 X104.977 Y93.631 E0.09357
G1 X105.805 Y93.19 E0.12478
G1 X106.667 Y92.821 E0.15596
G1 X107.558 Y92.527 E0.18717
G1 X108.47 Y92.309 E0.21836
G1 X109.397 Y92.171 E0.24953
G1 X110.251 Y92.113 E0.278
G1 X110.571 Y92.104 E0.28865
G1 X110.88 Y92.1 E0.29892
G1 X123.743 Y92.1 E0.72675
G1 X124.599 Y92.111 E0.75522
G1 X125.535 Y92.165 E0.78641
G1 X126.463 Y92.297 E0.81758
G1 X127.377 Y92.509 E0.84879
G1 X128.269 Y92.798 E0.87997
G1 X129.134 Y93.161 E0.91118
G1 X129.964 Y93.597 E0.94236
G1 X130.755 Y94.102 E0.97357
G1 X131.499 Y94.673 E1.00476
G1 X132.192 Y95.305 E1.03596
G1 X132.829 Y95.993 E1.06714
G1 X133.404 Y96.734 E1.09834
G1 X133.915 Y97.52 E1.12952
G1 X134.357 Y98.348 E1.16074
G1 X134.726 Y99.21 E1.19193
G1 X135.021 Y100.1 E1.22311
G1 X135.239 Y101.012 E1.2543
G1 X135.379 Y101.94 E1.28551
G1 X135.437 Y102.801 E1.31422
G1 X135.446 Y103.121 E1.32486
G1 X135.45 Y103.43 E1.33514
G1 X135.449 Y107.551 E1.47221
G1 X135.439 Y108.248 E1.49539
G1 X135.413 Y108.856 E1.51563
G1 X135.363 Y109.556 E1.53897
G1 X135.224 Y111.184 E1.59332
G1 X135.08 Y113.706 E1.67734
G1 X135.009 Y116.191 E1.76002
G1 X135.009 Y118.715 E1.84397
G1 X135.08 Y121.239 E1.92795
G1 X135.225 Y123.825 E2.0141
G1 X135.329 Y125.149 E2.05827
G1 X135.4 Y125.969 E2.08564
G1 X135.436 Y126.6 E2.10667
G1 X135.445 Y126.911 E2.11701
G1 X135.45 Y127.229 E2.12759
G1 X135.449 Y131.315 E2.26349
G1 X135.439 Y132.042 E2.28768
G1 X135.386 Y132.979 E2.31889
G1 X135.254 Y133.907 E2.35007
G1 X135.043 Y134.821 E2.38127
G1 X134.754 Y135.713 E2.41245
G1 X134.391 Y136.578 E2.44365
G1 X133.956 Y137.409 E2.47485
G1 X133.451 Y138.199 E2.50604
G1 X132.881 Y138.944 E2.53723
G1 X132.25 Y139.638 E2.56843
G1 X131.561 Y140.275 E2.59964
G1 X130.821 Y140.851 E2.63083
G1 X130.035 Y141.362 E2.66201
G1 X129.208 Y141.804 E2.6932
G1 X128.346 Y142.174 E2.7244
G1 X127.456 Y142.469 E2.75559
G1 X126.544 Y142.688 E2.78678
G1 X125.617 Y142.828 E2.81796
G1 X124.749 Y142.887 E2.8469
G1 X124.429 Y142.896 E2.85755
G1 X124.12 Y142.9 E2.86783
G1 X111.115 Y142.899 E3.30037
G1 X110.417 Y142.89 E3.32359
G1 X109.481 Y142.838 E3.35477
G1 X108.552 Y142.706 E3.38598
G1 X107.638 Y142.496 E3.41717
G1 X106.745 Y142.209 E3.44837
G1 X105.88 Y141.846 E3.47957
G1 X105.049 Y141.412 E3.51075
G1 X104.258 Y140.908 E3.54195
G1 X103.513 Y140.338 E3.57315
G1 X102.819 Y139.707 E3.60434
G1 X102.182 Y139.02 E3.6355
G1 X101.605 Y138.28 E3.66671
G1 X101.093 Y137.494 E3.69791
G1 X100.65 Y136.667 E3.72912
G1 X100.279 Y135.806 E3.7603
G1 X99.983 Y134.916 E3.7915
G1 X99.764 Y134.004 E3.82269
G1 X99.623 Y133.077 E3.85388
G1 X99.563 Y132.188 E3.88351
G1 X99.554 Y131.855 E3.89459
G1 X99.55 Y131.563 E3.90431
G1 X99.548 Y126.86 E4.06073
G1 X99.552 Y125.876 E4.09346
G1 X99.55 Y125.564 E4.10383
G1 X99.55 Y109.08 E4.65209
G1 X99.552 Y108.088 E4.68509
G1 X99.55 Y107.824 E4.69387
G1 X99.551 Y103.609 E4.83406
G1 X99.561 Y102.944 E4.85618
G1 X99.615 Y102.007 E4.8874
G1 X99.749 Y101.079 E4.91858
G1 X99.961 Y100.165 E4.94979
G1 X100.25 Y99.273 E4.98098
G1 X100.615 Y98.409 E5.01217
G1 X101.051 Y97.579 E5.04335
G1 X101.557 Y96.789 E5.07456
G1 X102.128 Y96.045 E5.10575
G1 X102.76 Y95.352 E5.13695
G0 F6000 X103.152 Y95.527
G1 F1200 X103.838 Y94.913 E5.16757
G1 X104.574 Y94.361 E5.19817
G1 X105.356 Y93.874 E5.22881
G1 X106.177 Y93.458 E5.25942
G1 X107.031 Y93.114 E5.29004
G1 X107.911 Y92.845 E5.32065
G1 X108.812 Y92.654 E5.35128
G1 X109.726 Y92.542 E5.38191
G1 X110.262 Y92.513 E5.39976
G1 X110.582 Y92.504 E5.41041
G1 X110.88 Y92.5 E5.42032
G1 X123.743 Y92.5 E5.84815
G1 X124.593 Y92.511 E5.87642
G1 X125.512 Y92.564 E5.90704
G1 X126.423 Y92.697 E5.93766
G1 X127.319 Y92.908 E5.96827
G1 X128.193 Y93.196 E5.99888
G1 X129.04 Y93.559 E6.02953
G1 X129.851 Y93.994 E6.06014
G1 X130.621 Y94.498 E6.09075
G1 X131.345 Y95.067 E6.12137
G1 X132.017 Y95.697 E6.15201
G1 X132.632 Y96.382 E6.18263
G1 X133.185 Y97.118 E6.21325
G1 X133.672 Y97.899 E6.24386
G1 X134.089 Y98.72 E6.27449
G1 X134.434 Y99.574 E6.30512
G1 X134.703 Y100.454 E6.33573
G1 X134.895 Y101.355 E6.36637
G1 X135.008 Y102.268 E6.39697
G1 X135.037 Y102.812 E6.41509
G1 X135.046 Y103.132 E6.42573
G1 X135.05 Y103.43 E6.43565
G1 X135.049 Y107.545 E6.57251
G1 X135.039 Y108.242 E6.5957
G1 X135.014 Y108.828 E6.61521
G1 X134.965 Y109.522 E6.63834
G1 X134.825 Y111.163 E6.69312
G1 X134.682 Y113.671 E6.77668
G1 X134.609 Y116.215 E6.86132
G1 X134.609 Y118.726 E6.94484
G1 X134.68 Y121.274 E7.02962
G1 X134.822 Y123.786 E7.1133
G1 X134.937 Y125.269 E7.16278
G1 X135.001 Y126.004 E7.18731
G1 X135.037 Y126.611 E7.20754
G1 X135.046 Y126.922 E7.21789
G1 X135.05 Y127.229 E7.2281
G1 X135.049 Y131.31 E7.36383
G1 X135.039 Y132.037 E7.38802
G1 X134.986 Y132.956 E7.41863
G1 X134.854 Y133.867 E7.44925
G1 X134.643 Y134.763 E7.47986
G1 X134.356 Y135.638 E7.51049
G1 X133.993 Y136.484 E7.54111
G1 X133.559 Y137.296 E7.57173
G1 X133.055 Y138.067 E7.60237
G1 X132.487 Y138.791 E7.63298
G1 X131.858 Y139.463 E7.66359
G1 X131.173 Y140.078 E7.69421
G1 X130.437 Y140.631 E7.72483
G1 X129.656 Y141.119 E7.75546
G1 X128.836 Y141.537 E7.78607
G1 X127.982 Y141.882 E7.81671
G1 X127.102 Y142.151 E7.84731
G1 X126.201 Y142.344 E7.87796
G1 X125.288 Y142.457 E7.90856
G1 X124.738 Y142.487 E7.92688
G1 X124.418 Y142.496 E7.93753
G1 X124.12 Y142.5 E7.94744
G1 X111.12 Y142.499 E8.37982
G1 X110.422 Y142.49 E8.40304
G1 X109.503 Y142.438 E8.43365
G1 X108.592 Y142.307 E8.46426
G1 X107.696 Y142.097 E8.49487
G1 X106.821 Y141.81 E8.5255
G1 X105.974 Y141.448 E8.55614
G1 X105.162 Y141.014 E8.58676
G1 X104.391 Y140.512 E8.61736
G1 X103.666 Y139.944 E8.64799
G1 X102.993 Y139.315 E8.67863
G1 X102.378 Y138.631 E8.70922
G1 X101.824 Y137.896 E8.73984
G1 X101.336 Y137.115 E8.77047
G1 X100.917 Y136.295 E8.8011
G1 X100.571 Y135.442 E8.83171
G1 X100.301 Y134.562 E8.86233
G1 X100.108 Y133.661 E8.89297
G1 X99.994 Y132.748 E8.92358
G1 X99.963 Y132.177 E8.9426
G1 X99.954 Y131.844 E8.95368
G1 X99.95 Y131.563 E8.96302
G1 X99.948 Y126.861 E9.11941
G1 X99.952 Y125.873 E9.15227
G1 X99.95 Y125.561 E9.16265
G1 X99.95 Y109.081 E9.71078
G1 X99.952 Y108.085 E9.7439
G1 X99.95 Y107.821 E9.75269
G1 X99.951 Y103.615 E9.89258
G1 X99.961 Y102.95 E9.9147
G1 X100.015 Y102.031 E9.94532
G1 X100.148 Y101.12 E9.97594
G1 X100.36 Y100.224 E10.00656
G1 X100.649 Y99.349 E10.03721
G1 X101.013 Y98.504 E10.06781
G1 X101.448 Y97.693 E10.09842
G1 X101.953 Y96.922 E10.12908
G1 X102.522 Y96.199 E10.15968
G1 X103.152 Y95.527 E10.19031
G0 F6000 X103.543 Y95.706
G1 F1200 X104.225 Y95.114 E10.22035
G1 X104.957 Y94.585 E10.25039
G1 X105.733 Y94.123 E10.28043
G1 X106.547 Y93.732 E10.31046
G1 X107.392 Y93.413 E10.3405
G1 X108.262 Y93.171 E10.37054
G1 X109.15 Y93.007 E10.40057
G1 X110.273 Y92.913 E10.43805
G1 X110.593 Y92.904 E10.4487
G1 X110.88 Y92.9 E10.45825
G1 X123.743 Y92.9 E10.88607
G1 X124.587 Y92.911 E10.91415
G1 X125.489 Y92.964 E10.9442
G1 X126.382 Y93.096 E10.97422
G1 X127.26 Y93.307 E11.00426
G1 X128.116 Y93.595 E11.0343
G1 X128.943 Y93.957 E11.06432
G1 X129.735 Y94.392 E11.09438
G1 X130.486 Y94.894 E11.12442
G1 X131.189 Y95.461 E11.15446
G1 X131.839 Y96.088 E11.1845
G1 X132.431 Y96.77 E11.21454
G1 X132.961 Y97.501 E11.24457
G1 X133.423 Y98.277 E11.2746
G1 X133.816 Y99.09 E11.30464
G1 X134.134 Y99.935 E11.33467
G1 X134.377 Y100.805 E11.36471
G1 X134.542 Y101.693 E11.39475
G1 X134.637 Y102.823 E11.43247
G1 X134.646 Y103.143 E11.44312
G1 X134.65 Y103.43 E11.45266
G1 X134.649 Y107.539 E11.58933
G1 X134.639 Y108.236 E11.61251
G1 X134.615 Y108.8 E11.63129
G1 X134.566 Y109.488 E11.65423
G1 X134.425 Y111.14 E11.70938
G1 X134.282 Y113.639 E11.79263
G1 X134.209 Y116.203 E11.87794
G1 X134.209 Y118.737 E11.96222
G1 X134.28 Y121.271 E12.04654
G1 X134.424 Y123.84 E12.13212
G1 X134.538 Y125.288 E12.18043
G1 X134.603 Y126.038 E12.20547
G1 X134.637 Y126.623 E12.22496
G1 X134.646 Y126.934 E12.2353
G1 X134.65 Y127.229 E12.24512
G1 X134.649 Y131.304 E12.38065
G1 X134.639 Y132.031 E12.40483
G1 X134.587 Y132.933 E12.43488
G1 X134.455 Y133.826 E12.46491
G1 X134.244 Y134.705 E12.49497
G1 X133.957 Y135.561 E12.525
G1 X133.595 Y136.388 E12.55503
G1 X133.161 Y137.18 E12.58507
G1 X132.659 Y137.931 E12.61511
G1 X132.093 Y138.634 E12.64513
G1 X131.466 Y139.285 E12.67519
G1 X130.785 Y139.877 E12.7052
G1 X130.054 Y140.407 E12.73523
G1 X129.278 Y140.87 E12.76529
G1 X128.465 Y141.263 E12.79532
G1 X127.62 Y141.583 E12.82538
G1 X126.751 Y141.826 E12.85539
G1 X125.863 Y141.991 E12.88543
G1 X124.727 Y142.087 E12.92335
G1 X124.407 Y142.096 E12.93399
G1 X124.12 Y142.1 E12.94354
G1 X111.125 Y142.099 E13.37576
G1 X110.427 Y142.09 E13.39897
G1 X109.526 Y142.039 E13.42899
G1 X108.632 Y141.907 E13.45905
G1 X107.754 Y141.698 E13.48906
G1 X106.897 Y141.411 E13.51912
G1 X106.07 Y141.05 E13.54914
G1 X105.277 Y140.617 E13.57919
G1 X104.526 Y140.116 E13.60921
G1 X103.822 Y139.55 E13.63926
G1 X103.171 Y138.924 E13.6693
G1 X102.578 Y138.243 E13.69933
G1 X102.048 Y137.512 E13.72936
G1 X101.584 Y136.737 E13.75941
G1 X101.19 Y135.924 E13.78945
G1 X100.87 Y135.08 E13.81948
G1 X100.626 Y134.21 E13.84953
G1 X100.46 Y133.322 E13.87958
G1 X100.363 Y132.167 E13.91813
G1 X100.354 Y131.834 E13.92921
G1 X100.35 Y131.562 E13.93825
G1 X100.348 Y126.863 E14.09454
G1 X100.352 Y125.87 E14.12757
G1 X100.35 Y125.558 E14.13795
G1 X100.35 Y109.081 E14.68598
G1 X100.352 Y108.082 E14.7192
G1 X100.35 Y107.818 E14.72798
G1 X100.351 Y103.621 E14.86758
G1 X100.361 Y102.956 E14.8897
G1 X100.415 Y102.054 E14.91975
G1 X100.548 Y101.161 E14.94978
G1 X100.759 Y100.283 E14.97981
G1 X101.048 Y99.427 E15.00986
G1 X101.411 Y98.6 E15.0399
G1 X101.845 Y97.809 E15.06991
G1 X102.348 Y97.058 E15.09997
G1 X102.916 Y96.356 E15.13001
G1 X103.543 Y95.706 E15.16005
G1 F1500 E8.66005
;MESH:Calliper Battery Cover.stl
G0 F6000 X109.889 Y126.057
G0 X110.243 Y126.4
G0 X110.87 Y127.22
G0 X124.068 Y127.282
G0 X124.11 Y131.56
G0 X124.25 Y131.7
;TYPE:WALL-OUTER
G1 F1500 E15.16005
G1 F1200 X110.75 Y131.7 E15.60906
G1 X110.75 Y127.1 E15.76205
G1 X124.25 Y127.1 E16.21107
G1 X124.25 Y131.7 E16.36406
G0 F6000 X123.86 Y131.31
;TYPE:SKIN
G1 F1200 X111.14 Y131.31 E16.78713
G1 X111.14 Y127.49 E16.91419
G1 X123.86 Y127.49 E17.33725
G1 X123.86 Y131.31 E17.46431
G0 F6000 X124.14 Y131.31
G0 X124.14 Y128.226
G0 X123.7 Y128.226
G1 F1200 X123.124 Y127.649 E17.49143
G0 F6000 X122.558 Y127.649
G1 F1200 X123.7 Y128.791 E17.54514
G0 F6000 X123.7 Y129.357
G1 F1200 X121.992 Y127.649 E17.62548
G0 F6000 X121.427 Y127.649
G1 F1200 X123.7 Y129.923 E17.73242
G0 F6000 X123.7 Y130.488
G1 F1200 X120.861 Y127.649 E17.86596
G0 F6000 X120.295 Y127.649
G1 F1200 X123.7 Y131.054 E18.02612
G0 F6000 X123.229 Y131.149
G1 F1200 X119.73 Y127.649 E18.19072
G0 F6000 X119.164 Y127.649
G1 F1200 X122.663 Y131.149 E18.35533
G0 F6000 X122.098 Y131.149
G1 F1200 X118.598 Y127.649 E18.51996
G0 F6000 X118.033 Y127.649
G1 F1200 X121.532 Y131.149 E18.68456
G0 F6000 X120.966 Y131.149
G1 F1200 X117.467 Y127.649 E18.84917
G0 F6000 X116.901 Y127.649
G1 F1200 X120.401 Y131.149 E19.0138
G0 F6000 X119.835 Y131.149
G1 F1200 X116.336 Y127.649 E19.1784
G0 F6000 X115.77 Y127.649
G1 F1200 X119.269 Y131.149 E19.34301
G0 F6000 X118.704 Y131.149
G1 F1200 X115.204 Y127.649 E19.50764
G0 F6000 X114.638 Y127.649
G1 F1200 X118.138 Y131.149 E19.67227
G0 F6000 X117.572 Y131.149
G1 F1200 X114.073 Y127.649 E19.83687
G0 F6000 X113.507 Y127.649
G1 F1200 X117.007 Y131.149 E20.0015
G0 F6000 X116.441 Y131.149
G1 F1200 X112.941 Y127.649 E20.16613
G0 F6000 X112.376 Y127.649
G1 F1200 X115.875 Y131.149 E20.33074
G0 F6000 X115.31 Y131.149
G1 F1200 X111.81 Y127.649 E20.49537
G0 F6000 X111.3 Y127.704
G1 F1200 X114.744 Y131.149 E20.65739
G0 F6000 X114.178 Y131.149
G1 F1200 X111.3 Y128.27 E20.79278
G0 F6000 X111.3 Y128.836
G1 F1200 X113.612 Y131.149 E20.90156
G0 F6000 X113.047 Y131.149
G1 F1200 X111.3 Y129.401 E20.98375
G0 F6000 X111.3 Y129.967
G1 F1200 X112.481 Y131.149 E21.03933
G0 F6000 X111.915 Y131.149
G1 F1200 X111.3 Y130.533 E21.06828
G1 F1500 E14.56828
G0 F6000 X110.95 Y130.533
G0 X110.89 Y129.463
G0 X109.885 Y129.463
G0 X116.665 Y118.671
G0 X115.63 Y118.671
G0 X115.68 Y120.651
G0 X115.8 Y120.444
;TYPE:WALL-OUTER
G1 F1500 E21.06828
G1 F1200 X120.7 Y117.615 E21.25647
G1 X120.7 Y117.385 E21.26411
G1 X115.8 Y114.556 E21.4523
G1 X115.8 Y120.444 E21.64814
G1 F1500 E15.14814
G0 F6000 X115.855 Y120.54
G0 X119.108 Y118.776
G0 X118.571 Y117.847
G0 X124.029 Y118.775
G0 X122.955 Y118.776
G0 X123.025 Y125.56
G0 X123.165 Y125.7
G1 F1500 E21.64814
G1 F1200 X110.75 Y125.7 E22.06106
G1 X110.75 Y109.3 E22.60653
G1 X123.164 Y109.3 E23.01942
G1 X123.165 Y125.7 E23.56489
G0 F6000 X122.775 Y125.31
;TYPE:SKIN
G1 F1200 X111.14 Y125.31 E23.95187
G1 X111.14 Y109.69 E24.47139
G1 X122.774 Y109.69 E24.85834
G1 X122.775 Y125.31 E25.37786
G1 F1500 E18.87786
G0 F6000 X122.964 Y125.309
G0 X122.955 Y117.723
G0 X120.89 Y117.723
G0 X121.09 Y117.84
G1 F1500 E25.37786
G1 F1200 X121.09 Y117.16 E25.40048
G1 X115.6 Y113.991 E25.61131
G1 X115.41 Y114.1 E25.6186
G1 X115.41 Y120.9 E25.84477
G1 X115.6 Y121.009 E25.85205
G1 X121.09 Y117.84 E26.06289
G1 F1500 E19.56289
G0 F6000 X120.886 Y117.723
G0 X120.84 Y117.349
G0 X119.366 Y116.395
G0 X119.211 Y117.5
G0 X124.029 Y116.394
G0 X122.955 Y116.395
G0 X122.964 Y110.167
G0 X122.613 Y110.168
G1 F1500 E26.06289
G1 F1200 X122.294 Y109.849 E26.07789
G0 F6000 X121.729 Y109.849
G1 F1200 X122.613 Y110.734 E26.1195
G0 F6000 X122.613 Y111.3
G1 F1200 X121.163 Y109.849 E26.18773
G0 F6000 X120.597 Y109.849
G1 F1200 X122.613 Y111.865 E26.28255
G0 F6000 X122.613 Y112.431
G1 F1200 X120.032 Y109.849 E26.40398
G0 F6000 X119.466 Y109.849
G1 F1200 X122.613 Y112.997 E26.55203
G0 F6000 X122.613 Y113.562
G1 F1200 X118.9 Y109.849 E26.72667
G0 F6000 X118.335 Y109.849
G1 F1200 X122.613 Y114.128 E26.92792
G0 F6000 X122.613 Y114.694
G1 F1200 X117.769 Y109.849 E27.15579
G0 F6000 X117.203 Y109.849
G1 F1200 X122.614 Y115.26 E27.41031
G0 F6000 X122.614 Y115.826
G1 F1200 X116.637 Y109.849 E27.69145
G0 F6000 X116.072 Y109.849
G1 F1200 X122.614 Y116.391 E27.99917
G0 F6000 X122.614 Y116.957
G1 F1200 X115.506 Y109.849 E28.3335
G0 F6000 X114.94 Y109.849
G1 F1200 X122.614 Y117.523 E28.69447
G0 F6000 X122.614 Y118.088
G1 F1200 X114.375 Y109.849 E29.082
G0 F6000 X113.809 Y109.849
G1 F1200 X120.724 Y116.764 E29.40726
G0 F6000 X121.249 Y117.289
G1 F1200 X122.614 Y118.654 E29.47147
G0 F6000 X122.614 Y119.22
G1 F1200 X121.249 Y117.855 E29.53567
G0 F6000 X120.94 Y118.111
G1 F1200 X122.614 Y119.786 E29.61444
G0 F6000 X122.615 Y120.352
G1 F1200 X120.58 Y118.318 E29.71013
G0 F6000 X120.222 Y118.525
G1 F1200 X122.615 Y120.918 E29.82269
G0 F6000 X122.615 Y121.483
G1 F1200 X119.863 Y118.732 E29.95212
G0 F6000 X119.504 Y118.938
G1 F1200 X122.615 Y122.049 E30.09845
G0 F6000 X122.615 Y122.615
G1 F1200 X119.146 Y119.146 E30.26162
G0 F6000 X118.787 Y119.353
G1 F1200 X122.615 Y123.18 E30.44165
G0 F6000 X122.615 Y123.746
G1 F1200 X118.429 Y119.56 E30.63855
G0 F6000 X118.069 Y119.766
G1 F1200 X122.615 Y124.312 E30.85238
G0 F6000 X122.615 Y124.877
G1 F1200 X117.711 Y119.974 E31.08302
G0 F6000 X117.352 Y120.181
G1 F1200 X122.32 Y125.149 E31.3167
G0 F6000 X121.755 Y125.149
G1 F1200 X116.993 Y120.387 E31.54069
G0 F6000 X116.635 Y120.594
G1 F1200 X121.189 Y125.149 E31.75492
G0 F6000 X120.623 Y125.149
